**kern	**kern	**dynam
*part1	*part1	*part1
*staff2	*staff1	*
*I"Piano	*	*
*clefF4	*clefG2	*
*k[b-e-a-]	*k[b-e-a-]	*
=1	=1	=1
4C 4G	4c 4en 4g	.
8CL 8G	8cL 8e 8g	.
8CJ 8G	8cJ 8e 8g	.
=	=	=
4C 4G	4c 4en 4g	.
8CL 8G	8cL 8e 8g	.
8CJ 8G	8BnJ 8d 8g	.
=	=	=
4C 4G	4c 4en 4g	.
8CL 8G	8cL 8e 8g	.
8CJ 8G	8cJ 8e 8g	.
=	=	=
4C 4G	4c 4en 4g	<
8CL 8G	8cL 8e 8g	.
8GGJ 8E- 8G	8B-J 8e-X 8g	.
=	=	=
4GG 4E- 4G	4B- 4e- 4g	[ fp >
8BB-L 8E- 8G	8B-L 8e- 8g	.
8BB-J 8E- 8G	8B-J 8e- 8g	.
=	=	=
4BB- 4E- 4G	4B- 4e- 4g	]
8BB-L 8E- 8G	8B-L 8e- 8g	.
8BB-J 8E- 8G	8B-J 8e- 8g	.
=	=	=
4BB- 4F 4A-	4B- 4d 4a-	.
8BB-L 8F 8A-	8B-L 8d 8a-	.
8BB-J 8F 8A-	8B-J 8d 8a-	.
=	=	=
4BB- 4E- 4G	4B- 4e- 4g	.
8BB-L 8E- 8G	8B-L 8e- 8g	.
8BB-J 8E- 8G	8B-J 8e- 8g	.
=	=	=
*-	*-	*-
!!!system-decoration: {(s1,s2)}
